<?xml version="1.0" encoding="UTF-8"?>
<map version="1.10" tiledversion="1.12.2" orientation="orthogonal" renderorder="right-down" width="32" height="32" tilewidth="32" tileheight="32" infinite="0" nextlayerid="2" nextobjectid="1">
 <tileset firstgid="1" name="tilesets-32x32" tilewidth="32" tileheight="32" tilecount="36" columns="6">
  <image source="tilesets-32x32.png" width="192" height="192"/>
 </tileset>
 <layer id="1" name="Camada de Blocos 1" width="32" height="32">
  <data encoding="csv">
1,1,1,1,2,2,1,1,1,1,1,1,1,1,1,1,1,1,1,1,1,1,1,1,1,1,2,2,1,1,1,1,
1,1,1,2,2,2,2,2,2,2,2,1,1,1,1,1,1,1,1,1,1,1,1,1,1,1,2,2,1,1,1,1,
1,1,2,2,2,2,2,1,1,1,1,1,1,1,1,1,1,1,1,1,1,1,1,1,1,1,2,2,1,1,1,1,
1,1,2,2,2,2,1,1,1,1,2,2,2,2,1,1,1,1,1,1,1,1,1,1,1,2,2,2,1,1,1,1,
1,1,2,2,2,1,1,2,2,2,2,1,1,2,2,2,2,1,1,1,1,1,1,1,1,2,1,2,1,1,1,1,
1,1,2,2,2,1,2,1,1,2,2,2,2,2,2,1,1,2,1,1,1,1,1,1,2,2,1,2,1,1,1,1,
1,1,2,2,1,2,1,1,2,2,2,2,1,1,2,2,2,1,2,2,1,1,1,1,1,2,1,2,1,1,1,1,
1,2,2,1,1,2,1,2,1,2,2,2,1,1,1,1,2,2,1,2,1,1,1,1,2,2,1,2,1,1,1,1,
1,2,2,1,1,2,1,2,2,2,1,1,1,1,1,1,1,2,2,1,2,1,1,1,2,2,2,2,1,1,1,1,
1,2,2,1,1,2,2,1,2,2,1,1,7,8,9,1,1,1,2,1,2,2,1,1,2,2,2,2,1,1,1,1,
2,1,2,1,1,2,2,1,2,1,1,1,13,14,15,1,1,1,2,1,1,2,1,1,2,2,2,2,1,1,1,1,
1,2,2,1,1,2,2,1,2,1,1,1,19,20,21,1,1,1,2,1,1,2,1,1,2,1,2,2,1,1,1,1,
1,2,2,2,1,1,2,1,2,2,1,1,1,1,1,1,1,1,2,1,2,2,1,1,2,2,2,2,1,1,1,1,
1,2,2,2,1,1,2,1,1,2,2,1,1,1,1,1,1,1,2,1,2,1,1,1,1,2,2,2,1,1,1,1,
1,2,2,2,1,1,2,2,1,1,2,2,1,1,1,1,2,2,2,2,2,1,1,1,1,2,2,2,1,1,1,1,
2,2,2,2,1,1,1,2,2,2,1,2,2,2,2,2,2,2,2,1,1,1,1,1,1,2,2,2,1,1,1,1,
2,2,2,2,1,1,1,1,1,2,2,2,2,2,2,2,2,2,1,1,1,1,1,1,1,2,2,1,2,1,1,1,
2,2,2,2,1,2,2,2,1,1,1,1,1,1,1,1,1,1,1,1,1,2,2,2,2,2,1,1,2,1,1,1,
1,2,2,2,2,2,2,2,2,2,2,2,1,1,1,1,1,1,1,1,1,2,2,2,1,1,1,1,2,1,1,1,
1,2,2,2,2,1,1,1,2,2,2,2,2,2,2,2,2,2,2,2,2,2,2,1,1,1,1,1,2,1,1,1,
1,2,2,2,2,1,1,1,1,1,2,2,2,2,2,2,1,1,1,1,1,1,1,1,1,1,1,1,2,1,1,1,
1,1,2,2,2,1,1,1,1,2,2,1,1,1,1,2,2,1,1,1,1,1,1,1,1,1,1,1,1,2,1,1,
1,1,2,2,2,1,1,1,2,2,1,1,1,1,1,1,2,2,1,1,1,1,1,1,1,1,1,1,1,2,1,1,
2,1,2,2,1,1,1,1,2,1,1,1,1,1,1,1,1,1,2,2,1,1,1,1,1,1,1,2,2,2,1,1,
2,1,2,2,1,1,1,1,1,1,1,1,1,1,1,1,1,1,1,2,2,1,1,1,1,1,1,2,1,2,2,1,
2,2,2,2,2,1,1,1,1,2,2,1,1,1,1,1,1,2,2,2,2,1,1,1,1,1,2,1,1,1,1,1,
1,1,1,2,2,1,1,1,2,2,2,2,2,2,1,1,1,2,2,1,1,1,1,1,1,2,1,1,1,1,1,1,
1,1,2,2,1,1,1,2,2,1,1,1,1,1,2,2,2,2,2,2,1,1,1,1,2,2,1,1,1,1,1,1,
1,2,2,1,1,1,1,2,1,1,1,1,1,1,1,1,1,2,2,2,2,2,1,1,2,1,1,1,1,1,1,1,
1,1,2,1,1,1,1,2,1,1,1,1,1,1,1,1,1,1,1,2,1,1,2,2,2,1,1,1,1,1,1,1,
1,1,1,2,2,2,2,2,1,1,1,1,1,1,1,1,1,1,1,2,2,2,2,2,2,1,1,1,1,1,1,1,
1,1,1,1,1,2,2,1,1,1,1,1,1,1,1,1,1,1,1,1,1,1,1,1,2,2,2,1,1,1,1,1
</data>
 </layer>
</map>
